public/icons/Lua-Dark.svg

<svg xmlns="http://www.w3.org/2000/svg" width="256" height="256" fill="none" viewBox="0 0 256 256"><rect width="256" height="256" fill="#242938" rx="60"/><g clip-path="url(#clip0_101_404)"><path fill="navy" d="M204.453 128.02C204.453 85.8242 170.195 51.5703 128 51.5703C85.8047 51.5703 51.5469 85.8242 51.5469 128.02C51.5469 170.219 85.8047 204.473 128 204.473C170.195 204.473 204.453 170.219 204.453 128.02Z"/><path fill="#fff" d="M182.066 96.3438C182.066 83.9883 172.035 73.957 159.68 73.957C147.324 73.957 137.293 83.9883 137.293 96.3438C137.293 108.695 147.324 118.73 159.68 118.73C172.035 118.73 182.066 108.695 182.066 96.3438Z"/><path fill="navy" d="M226.84 51.5469C226.84 39.1914 216.809 29.1602 204.453 29.1602C192.098 29.1602 182.066 39.1914 182.066 51.5469C182.066 63.9023 192.098 73.9336 204.453 73.9336C216.809 73.9336 226.84 63.9258 226.84 51.5469Z"/><path fill="#fff" d="M82.5078 160.586H107.281V166.227H76.1094V116.066H82.5078V160.586Z"/><path fill="#fff" d="M136.871 166.227V161.199C133.492 165.953 130.133 167.809 124.832 167.809C117.82 167.809 113.344 163.965 113.344 157.969V130.176H119.047V155.707C119.047 160.039 121.937 162.805 126.48 162.805C132.457 162.805 136.32 157.988 136.32 150.617V130.176H142.023V166.227H136.871Z"/><path fill="#fff" d="M183.945 167.199C182.086 167.684 181.199 167.809 180.016 167.809C176.301 167.809 174.504 166.164 174.102 162.508C170.047 166.227 166.395 167.809 161.855 167.809C154.566 167.809 150.027 163.691 150.027 157.145C150.027 152.457 152.16 149.227 156.363 147.516C158.559 146.629 159.805 146.352 167.914 145.316C172.457 144.77 173.891 143.734 173.891 141.328V139.805C173.891 136.363 171 134.441 165.848 134.441C160.48 134.441 157.863 136.426 157.379 140.84H151.59C151.738 137.27 152.414 135.203 154.062 133.344C156.469 130.66 160.797 129.141 166.035 129.141C174.906 129.141 179.594 132.582 179.594 138.98V160.188C179.594 161.98 180.691 163.016 182.699 163.016C183.035 163.016 183.313 163.016 183.945 162.867V167.199ZM173.891 148.402C171.969 149.289 170.723 149.562 164.664 150.387C158.539 151.273 155.984 153.215 155.984 156.996C155.984 160.652 158.602 162.785 163.078 162.785C166.457 162.785 169.266 161.684 171.613 159.551C173.32 157.969 173.891 156.809 173.891 154.863V148.402Z"/><path stroke="gray" stroke-dasharray="8.63 8.63" stroke-miterlimit="10" stroke-width="2.294" d="M216.09 83.121C223.164 97.0195 226.859 112.394 226.859 128C226.859 182.574 182.574 226.859 128 226.859C73.4257 226.859 29.1406 182.574 29.1406 128C29.1406 73.4257 73.4257 29.1406 128 29.1406C145.551 29.1406 162.762 33.8086 177.883 42.6367"/></g><defs><clipPath id="clip0_101_404"><rect width="200" height="200" fill="#fff" transform="translate(28 28)"/></clipPath></defs></svg>

<svg xmlns="http://www.w3.org/2000/svg" width="256" height="256" fill="none"><rect width="256" height="256" fill="#242938" rx="60"/><g clip-path="url(#a)"><path fill="navy" d="M204.453 128.02c0-42.196-34.258-76.45-76.453-76.45s-76.453 34.254-76.453 76.45c0 42.199 34.258 76.453 76.453 76.453s76.453-34.254 76.453-76.453"/><path fill="#fff" d="M182.066 96.344c0-12.356-10.031-22.387-22.386-22.387-12.356 0-22.387 10.031-22.387 22.387 0 12.351 10.031 22.386 22.387 22.386s22.386-10.035 22.386-22.386"/><path fill="navy" d="M226.84 51.547c0-12.356-10.031-22.387-22.387-22.387s-22.387 10.031-22.387 22.387 10.032 22.387 22.387 22.387 22.387-10.008 22.387-22.387"/><path fill="#fff" d="M82.508 160.586h24.773v5.641H76.109v-50.161h6.399zM136.871 166.227v-5.028c-3.379 4.754-6.738 6.61-12.039 6.61-7.012 0-11.488-3.844-11.488-9.84v-27.793h5.703v25.531c0 4.332 2.89 7.098 7.433 7.098 5.977 0 9.84-4.817 9.84-12.188v-20.441h5.703v36.051zM183.945 167.199c-1.859.485-2.746.61-3.929.61-3.715 0-5.512-1.645-5.914-5.301-4.055 3.719-7.707 5.301-12.247 5.301-7.289 0-11.828-4.118-11.828-10.664 0-4.688 2.133-7.918 6.336-9.629 2.196-.887 3.442-1.164 11.551-2.2 4.543-.546 5.977-1.582 5.977-3.988v-1.523c0-3.442-2.891-5.364-8.043-5.364-5.368 0-7.985 1.985-8.469 6.399h-5.789c.148-3.57.824-5.637 2.472-7.496 2.407-2.684 6.735-4.203 11.973-4.203 8.871 0 13.559 3.441 13.559 9.839v21.208c0 1.792 1.097 2.828 3.105 2.828.336 0 .614 0 1.246-.149zm-10.054-18.797c-1.922.887-3.168 1.16-9.227 1.985-6.125.886-8.68 2.828-8.68 6.609 0 3.656 2.618 5.789 7.094 5.789 3.379 0 6.188-1.101 8.535-3.234 1.707-1.582 2.278-2.742 2.278-4.688z"/><path stroke="gray" stroke-dasharray="8.63 8.63" stroke-miterlimit="10" stroke-width="2.294" d="M216.09 83.121A98.9 98.9 0 0 1 226.859 128c0 54.574-44.285 98.859-98.859 98.859S29.14 182.574 29.14 128 73.427 29.14 128 29.14a98.93 98.93 0 0 1 49.883 13.497"/></g><defs><clipPath id="a"><path fill="#fff" d="M28 28h200v200H28z"/></clipPath></defs></svg>
